<?xml version="1.0" encoding="UTF-8"?>
<map version="1.10" tiledversion="1.11.2" orientation="orthogonal" renderorder="right-down" width="32" height="32" tilewidth="32" tileheight="32" infinite="0" nextlayerid="2" nextobjectid="1">
 <tileset firstgid="1" source="../../../../../Downloads/path.tsx"/>
 <layer id="1" name="Tile Layer 1" width="32" height="32">
  <data encoding="csv">
142,142,142,142,142,142,142,142,142,142,142,142,142,142,142,142,142,142,142,142,142,142,142,142,142,370,371,372,373,142,142,142,
142,142,142,193,194,194,194,194,194,194,194,194,194,194,194,194,194,194,142,142,142,142,142,142,142,370,371,372,373,142,142,142,
142,142,142,193,194,240,240,240,240,240,240,240,240,240,240,240,240,240,194,142,142,142,142,142,142,370,371,372,373,142,142,142,
142,142,142,193,194,142,142,142,142,142,142,142,142,142,142,142,239,240,240,142,142,142,142,142,142,370,371,372,373,142,142,142,
142,142,142,193,194,142,142,142,142,142,142,142,142,142,142,142,239,239,240,142,142,142,142,142,142,370,371,372,373,142,142,142,
142,142,142,193,194,142,142,142,142,142,142,142,142,142,142,142,239,239,240,142,142,142,142,142,142,370,371,372,373,142,142,142,
142,142,142,193,194,142,142,142,142,142,142,142,142,142,142,142,142,239,240,142,142,142,142,142,142,416,417,418,419,142,142,142,
142,142,142,193,194,142,142,142,142,142,142,142,142,142,142,142,142,239,240,142,142,142,142,142,142,370,371,372,373,142,142,142,
142,142,142,193,194,142,142,142,142,142,142,142,142,142,142,142,142,239,240,142,142,142,142,142,142,370,371,372,373,142,142,142,
142,142,142,193,194,142,142,142,142,142,142,142,142,142,142,142,142,239,240,142,142,142,142,142,142,370,371,372,373,142,142,142,
142,142,142,193,194,142,142,142,142,142,142,193,193,194,142,142,142,239,240,142,142,142,142,142,142,370,371,372,373,142,142,142,
142,142,142,193,193,193,193,193,193,193,193,239,193,194,142,142,142,239,240,142,142,142,142,142,142,370,371,372,373,142,142,142,
142,142,142,239,239,239,239,239,239,239,239,239,193,194,142,142,142,239,240,142,142,142,142,142,142,370,371,372,373,142,142,142,
142,142,142,142,142,142,142,142,142,142,142,142,193,194,142,142,142,239,240,142,142,142,142,142,142,416,417,418,419,142,142,142,
142,142,142,142,142,142,142,142,142,142,142,142,193,194,142,142,142,239,240,194,194,194,194,194,194,194,193,194,142,142,142,142,
142,142,142,142,142,142,142,142,142,142,142,142,193,194,142,142,142,239,240,240,240,240,240,240,240,240,239,240,142,142,142,142,
142,142,142,142,142,142,142,142,142,142,142,142,193,194,142,142,142,142,142,142,142,142,142,142,142,142,142,142,142,142,142,142,
142,142,142,142,142,142,142,142,142,142,142,142,193,193,194,142,142,142,142,142,142,142,142,142,142,142,142,142,142,142,142,142,
142,142,142,142,193,194,194,194,194,194,194,194,194,194,194,142,142,142,142,142,142,142,142,142,142,142,142,142,142,142,142,142,
142,142,142,142,193,194,240,240,240,240,240,240,240,240,240,142,193,193,193,193,193,193,193,194,142,142,142,142,142,142,142,142,
142,142,142,142,193,194,142,142,142,142,142,142,142,142,142,142,239,239,239,239,239,239,193,194,142,142,142,142,142,142,142,142,
142,142,142,142,193,194,142,142,142,142,142,142,142,142,142,142,239,240,142,142,142,142,193,194,142,142,142,142,142,142,142,142,
142,142,142,142,193,194,142,142,142,142,142,142,142,142,142,142,239,240,142,142,142,142,193,194,142,142,142,142,142,142,142,142,
142,142,142,142,193,194,142,142,142,142,142,142,142,142,142,142,239,240,142,142,142,142,193,194,142,142,142,142,142,142,142,142,
142,142,142,142,193,193,193,193,194,142,142,142,142,142,142,142,239,240,142,142,142,142,193,194,142,142,142,142,193,193,193,194,
142,142,142,142,239,239,239,193,193,193,193,193,193,193,193,193,239,240,142,142,142,142,193,193,193,193,193,193,239,239,239,240,
142,142,142,142,142,142,142,239,239,239,239,239,239,239,239,239,239,240,142,142,142,142,239,239,239,239,239,239,239,240,142,142,
142,142,142,142,142,142,142,142,142,142,142,142,142,142,142,142,142,142,142,142,142,142,142,142,142,142,142,142,142,142,142,142,
142,142,142,142,142,142,142,142,142,142,142,142,142,142,142,142,142,142,142,142,142,142,142,142,142,142,142,142,142,142,142,142,
142,142,142,142,142,142,142,142,142,142,142,142,142,142,142,142,142,142,142,142,142,142,142,142,142,142,142,142,142,142,142,142,
142,142,142,142,142,142,142,142,142,142,142,142,142,142,142,142,142,142,142,142,142,142,142,142,142,142,142,142,142,142,142,142,
142,142,142,142,142,142,142,142,142,142,142,142,142,142,142,142,142,142,142,142,142,142,142,142,142,142,142,142,142,142,142,142
</data>
 </layer>
</map>
